X: 2035
Q: "Strathspey."
M: C
L: 1/8
K: A
E<CC>E A,>EC<F | E<CC>E F>E(C<F) |\
E<CC>E A,>EC>c | A<F E>C B,3 ::\
f |\
e<ca>c b>ca>f |
e<ca>g f>ec>f |\
[1 e<ca>c b>ca>g | b/a/g/f/ a>c B3 :|\
[2 e>cd>B c>A B<G | A<F E>C B,3 |]


